Pictures/crowdfund-logo.svg

<svg width="50" height="50" viewBox="0 0 50 50" fill="none" xmlns="http://www.w3.org/2000/svg">
<g id="Group 3 Copy 4">
<rect id="Rectangle" width="50" height="50" rx="15" fill="#37C790"/>
<g id="crowdfund 3">
<g id="crowdfund 2">
<path id="crowdfund" fill-rule="evenodd" clip-rule="evenodd" d="M29.7224 24.9539V27.8847H28.4963V24.9539H27.9486V23.7684H28.4963C28.4963 22.6158 29.1257 21.9243 30.4826 22.0066V23.1921C30.0249 23.151 29.7224 23.2909 29.7224 23.7684H30.4826V24.9539H29.7224ZM26.3283 27.4978C26.0586 27.8106 25.658 28 25.1104 28C24.0395 28 23.1567 27.0532 23.1567 25.8266C23.1567 24.5999 24.0395 23.6532 25.1104 23.6532C25.658 23.6532 26.0586 23.8425 26.3283 24.1553V22.1219H27.5545V27.8847H26.3283V27.4978ZM10.0136 26.938C9.66209 27.5801 8.96727 28 8.16619 28C6.9237 28 6 27.0532 6 25.8266C6 24.5999 6.9237 23.6532 8.16619 23.6532C8.9591 23.6532 9.66209 24.073 10.0136 24.7069L8.94275 25.3326C8.80379 25.0445 8.50951 24.8716 8.14984 24.8716C7.61851 24.8716 7.22615 25.2585 7.22615 25.8266C7.22615 26.3946 7.61851 26.7816 8.14984 26.7816C8.50951 26.7816 8.81196 26.6087 8.94275 26.3205L10.0136 26.938ZM11.5521 26.0242V27.8847H10.326V23.7684H11.5521V24.5011C11.7156 23.9495 12.2633 23.6861 12.7782 23.6861V25.0856C12.2714 25.0033 11.5521 25.2091 11.5521 26.0242ZM14.9707 28C16.1723 28 17.1369 27.0532 17.1369 25.8266C17.1369 24.5999 16.1723 23.6532 14.9707 23.6532C13.7691 23.6532 12.8045 24.5999 12.8045 25.8266C12.8045 27.0532 13.7691 28 14.9707 28ZM14.0307 25.8266C14.0307 26.4111 14.4394 26.798 14.9707 26.798C15.502 26.798 15.9108 26.4111 15.9108 25.8266C15.9108 25.2421 15.502 24.8551 14.9707 24.8551C14.4394 24.8551 14.0307 25.2421 14.0307 25.8266ZM19.4929 27.8847L20.1468 25.6866L20.8007 27.8847H21.9451L23.253 23.7684H21.9451L21.3566 25.9748L20.719 23.7684H19.5746L18.937 25.9748L18.3485 23.7684H17.0406L18.3485 27.8847H19.4929ZM25.3556 26.831C24.7916 26.831 24.3828 26.444 24.3828 25.8266C24.3828 25.2091 24.7916 24.8222 25.3556 24.8222C25.9196 24.8222 26.3283 25.2091 26.3283 25.8266C26.3283 26.444 25.9196 26.831 25.3556 26.831ZM32.1846 28C32.7241 28 33.1328 27.8024 33.3536 27.4978V27.8847H34.5797V23.7684H33.3536V26.0159C33.3536 26.6004 33.0429 26.8639 32.5933 26.8639C32.201 26.8639 31.8822 26.6251 31.8822 26.1147V23.7684H30.656V26.2958C30.656 27.4072 31.359 28 32.1846 28ZM36.4861 25.6372V27.8847H35.2599V23.7684H36.4861V24.1553C36.7068 23.8507 37.1155 23.6532 37.655 23.6532C38.4806 23.6532 39.1836 24.2459 39.1836 25.3573V27.8847H37.9574V25.5384C37.9574 25.028 37.6386 24.7893 37.2463 24.7893C36.7967 24.7893 36.4861 25.0527 36.4861 25.6372ZM41.5559 28C42.1036 28 42.5041 27.8106 42.7739 27.4978V27.8847H44V22.1219H42.7739V24.1553C42.5041 23.8425 42.1036 23.6532 41.5559 23.6532C40.4851 23.6532 39.6022 24.5999 39.6022 25.8266C39.6022 27.0532 40.4851 28 41.5559 28ZM40.8284 25.8266C40.8284 26.444 41.2371 26.831 41.8011 26.831C42.3651 26.831 42.7739 26.444 42.7739 25.8266C42.7739 25.2091 42.3651 24.8222 41.8011 24.8222C41.2371 24.8222 40.8284 25.2091 40.8284 25.8266Z" fill="white"/>
</g>
</g>
</g>
</svg>

<svg xmlns="http://www.w3.org/2000/svg" width="50" height="50" fill="none"><rect width="50" height="50" fill="#37C790" rx="15"/><path fill="#fff" fill-rule="evenodd" d="M29.722 24.954v2.93h-1.226v-2.93h-.547v-1.186h.547c0-1.152.63-1.844 1.987-1.761v1.185c-.458-.041-.76.099-.76.576h.76v1.186h-.76Zm-3.394 2.544c-.27.313-.67.502-1.218.502-1.07 0-1.953-.947-1.953-2.173 0-1.227.883-2.174 1.953-2.174.548 0 .949.19 1.218.502v-2.033h1.227v5.763h-1.227v-.387Zm-16.314-.56C9.662 27.58 8.967 28 8.166 28 6.924 28 6 27.053 6 25.827c0-1.227.924-2.174 2.166-2.174.793 0 1.496.42 1.848 1.054l-1.071.626c-.14-.288-.433-.461-.793-.461-.531 0-.924.387-.924.955s.393.955.924.955c.36 0 .662-.173.793-.462l1.07.618Zm1.538-.914v1.86h-1.226v-4.116h1.226v.733c.164-.552.711-.815 1.226-.815v1.4c-.507-.083-1.226.123-1.226.938ZM14.971 28a2.15 2.15 0 0 0 2.166-2.173 2.15 2.15 0 0 0-2.166-2.174 2.15 2.15 0 0 0-2.166 2.174A2.15 2.15 0 0 0 14.97 28Zm-.94-2.173c0 .584.408.971.94.971.531 0 .94-.387.94-.971 0-.585-.409-.972-.94-.972-.532 0-.94.387-.94.972Zm5.462 2.058.654-2.198.654 2.198h1.144l1.308-4.117h-1.308l-.588 2.207-.638-2.207h-1.144l-.638 2.207-.588-2.207H17.04l1.308 4.117h1.144Zm5.863-1.054c-.564 0-.973-.387-.973-1.004 0-.618.409-1.005.973-1.005.564 0 .972.387.972 1.005 0 .617-.408 1.004-.972 1.004ZM32.185 28c.54 0 .948-.198 1.169-.502v.387h1.226v-4.117h-1.226v2.248c0 .584-.311.848-.76.848-.393 0-.712-.239-.712-.75v-2.346h-1.226v2.528c0 1.111.703 1.704 1.529 1.704Zm4.301-2.363v2.248H35.26v-4.117h1.226v.387c.22-.304.63-.502 1.169-.502.826 0 1.529.593 1.529 1.704v2.528h-1.227v-2.347c0-.51-.318-.749-.71-.749-.45 0-.76.264-.76.848ZM41.556 28c.548 0 .948-.19 1.218-.502v.387H44v-5.763h-1.226v2.033c-.27-.313-.67-.502-1.218-.502-1.07 0-1.954.947-1.954 2.174 0 1.226.883 2.173 1.954 2.173Zm-.728-2.173c0 .617.41 1.004.973 1.004.564 0 .973-.387.973-1.004 0-.618-.409-1.005-.973-1.005-.564 0-.973.387-.973 1.005Z" clip-rule="evenodd"/></svg>
